X:12
T:Katchacola
Z:Steve Beech 23/04/2008
R:march
M:2/4
L:1/8
K:D
|: AAAB | ABA2 | AdcB | A2F2 :| AGG2    |  AFF2   | AGG2    | AFF2 |
|  DFFE | DFFE | DFFE | D2D2  |(3DEF)FE |(3DEF)FE |(3DEF)FE | D2D2 |]
